img/social-icons/telegram.svg

<svg width="36" height="36" viewBox="0 0 36 36" fill="none" xmlns="http://www.w3.org/2000/svg">
<g clip-path="url(#clip0_426_41899)">
<path d="M18 35C27.3888 35 35 27.3888 35 18C35 8.61116 27.3888 1 18 1C8.61116 1 1 8.61116 1 18C1 27.3888 8.61116 35 18 35Z" fill="url(#paint0_linear_426_41899)"/>
<path fill-rule="evenodd" clip-rule="evenodd" d="M8.69521 17.8206C13.651 15.6614 16.9557 14.2379 18.6092 13.5502C23.3303 11.5865 24.3113 11.2454 24.9507 11.2341C25.0913 11.2317 25.4057 11.2665 25.6094 11.4318C25.9116 11.677 25.9133 12.2092 25.8798 12.5614C25.6239 15.2495 24.5169 21.7728 23.9537 24.7835C23.7154 26.0575 23.2461 26.4847 22.7919 26.5264C21.8047 26.6173 21.0551 25.874 20.0989 25.2472C18.6027 24.2664 17.7574 23.6559 16.305 22.6988C14.6266 21.5928 15.7147 20.9849 16.6712 19.9914C16.9215 19.7314 21.2712 15.775 21.3554 15.4161C21.366 15.3712 21.3757 15.2038 21.2763 15.1155C21.1769 15.0272 21.0302 15.0573 20.9244 15.0814C20.7743 15.1154 18.3841 16.6953 13.7537 19.8209C13.0752 20.2868 12.4607 20.5138 11.9101 20.5019C11.3031 20.4888 10.1356 20.1587 9.26756 19.8766C8.20294 19.5305 7.35679 19.3475 7.4305 18.7598C7.46888 18.4536 7.89043 18.1406 8.69521 17.8206Z" fill="white"/>
</g>
<defs>
<linearGradient id="paint0_linear_426_41899" x1="18" y1="1" x2="18" y2="34.7344" gradientUnits="userSpaceOnUse">
<stop stop-color="#2AABEE"/>
<stop offset="1" stop-color="#229ED9"/>
</linearGradient>
<clipPath id="clip0_426_41899">
<rect width="34" height="34" fill="white" transform="translate(1 1)"/>
</clipPath>
</defs>
</svg>

<svg width="36" height="36" fill="none" xmlns="http://www.w3.org/2000/svg"><g clip-path="url(#clip0_426_41899)"><path d="M18 35c9.389 0 17-7.611 17-17S27.389 1 18 1 1 8.611 1 18s7.611 17 17 17z" fill="url(#paint0_linear_426_41899)"/><path fill-rule="evenodd" clip-rule="evenodd" d="M8.695 17.82c4.956-2.159 8.26-3.582 9.914-4.27 4.721-1.964 5.702-2.305 6.342-2.316.14-.002.455.033.658.198.303.245.304.777.27 1.13-.255 2.688-1.362 9.21-1.925 12.222-.239 1.274-.708 1.7-1.162 1.742-.987.091-1.737-.652-2.693-1.279-1.496-.98-2.342-1.591-3.794-2.548-1.678-1.106-.59-1.714.366-2.708.25-.26 4.6-4.216 4.684-4.575.011-.045.02-.212-.079-.3-.1-.089-.246-.059-.352-.035-.15.034-2.54 1.614-7.17 4.74-.679.466-1.293.693-1.844.68-.607-.012-1.774-.342-2.642-.624-1.065-.346-1.911-.53-1.838-1.117.039-.306.46-.62 1.265-.94z" fill="#fff"/></g><defs><linearGradient id="paint0_linear_426_41899" x1="18" y1="1" x2="18" y2="34.734" gradientUnits="userSpaceOnUse"><stop stop-color="#2AABEE"/><stop offset="1" stop-color="#229ED9"/></linearGradient><clipPath id="clip0_426_41899"><path fill="#fff" transform="translate(1 1)" d="M0 0h34v34H0z"/></clipPath></defs></svg>
